X: 358
T: Angeline the Baker
C:Traditional, Stephen Foster
B: jims roots
M:2/2
L:1/8
Q: 1/2=100
K:D
V:1 
%Z:Paul Hardy's Session Tunebook 2019 (see www.paulhardy.net). Creative Commons cc by-nc-sa licenced.
|:x dB|"D"A2B2 d3A|B2 d4 dB|A2B2 d2g2|"G"B6 dB|
"D"A2B2 d3e|f2e2 d3e|f2e2 "G"d2B2|"D"A3B A2:|
|:x3 fg|"D"a2f2 e2de|f2e2 d2fg|a2f2 e2d2|"G"B3B B2fg|
"D"a2f2 e2de|f2e2 d2de|f2e2 "G"d2B2|"D"A3B A2:|
% abcbook-tune_id 6298c245e8ac472ea436602c


% abcbook-boost 0
% abcbook-tablature 
% abcbook-transpose 
% abcbook-lastupdated 1654178373188
% abcbook-soundfonts 
% abcbook-repeats 1


